X: 35075
T: Rolling In The Ryegrass
R: reel
M: 4/4
K: Dmixolydian
|:(A>BAF) (DF)(AF)|G2 BG dBAF|(A>BAF) (DF)(AF)|PG2 PF2 PE2 PD2:|
(Ad)(de) f2 .d.d|g2 .e.e f2 .d.d|(Ad)(de) f2 df|g2 fg e2 d2|
Adde f2 .d.d|g2 .e.e f2 .d.d|(Ad)(de) f2 a2|agfg e2 d z||

